X: 20012
T: MAID IN BEDLAM
Q: "And.e"
%R: reel, march
B: "Edinburgh Repository of Music" v.2 p.1 #2
F: http://digital.nls.uk/special-collections-of-printed-music/pageturner.cfm?id=87776133
Z: 2015 John Chambers <jc:trillian.mit.edu>
M: C
L: 1/8
K: G
%%slurgraces
%%graceslurs
G |\
d>edB e>fge | d>BAB G2zd |{ef}\
g>fga (gf)(ed) | e>dg>B d2zd |
g>fga {a}g>f {f}e>d | ed{d}cB {^d}e2 (3(def) |\
gf{f}e>d ~e>fHg {abefgfagf}e | (d<B)TA>B {A}G2z |]
